X: 177
T: Cod Liver Oil
M:3/4
R:waltz
L:1/4
Z:added by Alf warnock alf0@rogers.com - www.alfwarnock.info/alfs
K:Am
e|"Am"e2 d/e/|g e d|c A A|A2 A|
"G"G2 A/B/|d e d|d B G|G2 e|
"Am"a2 a/a/|a g a|e d B|"G"g2 g|
"Am"a g a|"G"e d e|"Am"c A A|A2 :|


